<?xml version="1.0" encoding="UTF-8"?>
<map version="1.10" tiledversion="1.10.2" orientation="orthogonal" renderorder="right-down" width="7" height="7" tilewidth="16" tileheight="16" infinite="0" nextlayerid="4" nextobjectid="3">
 <tileset firstgid="1" name="z_beach_cabin" tilewidth="16" tileheight="16" tilecount="49" columns="7">
  <image source="beach_cabin_exterior.png" width="112" height="112"/>
 </tileset>
 <layer id="1" name="Back" width="7" height="7">
  <data encoding="csv">
0,0,0,0,0,0,0,
0,0,0,0,0,0,0,
0,0,0,0,0,0,0,
0,0,0,0,0,0,0,
0,0,0,0,0,0,0,
0,0,0,0,0,0,0,
0,0,0,0,0,0,0
</data>
 </layer>
 <layer id="2" name="Buildings" width="7" height="7">
  <data encoding="csv">
0,0,0,0,0,0,0,
0,0,0,0,0,0,0,
0,0,0,0,0,0,0,
22,23,24,25,26,27,28,
29,30,31,32,33,34,35,
36,37,38,39,40,41,42,
43,44,45,46,47,48,49
</data>
 </layer>
 <layer id="3" name="Front" width="7" height="7">
  <data encoding="csv">
1,2,3,4,5,6,7,
8,9,10,11,12,13,14,
15,16,17,18,19,20,21,
0,0,0,0,0,0,0,
0,0,0,0,0,0,0,
0,0,0,0,0,0,0,
0,0,0,0,0,0,0
</data>
 </layer>
 <objectgroup id="4" name="Buildings">
  <object id="1" name="TileData" x="48" y="96" width="16" height="16">
   <properties>
    <property name="Action" value="Warp 5 9 BeachCabin"/>
   </properties>
  </object>
  <object id="2" name="TileData" x="48" y="80" width="16" height="16">
   <properties>
    <property name="Action" value="Warp 5 9 BeachCabin"/>
   </properties>
  </object>
 </objectgroup>
</map>
