<?xml version="1.0" encoding="UTF-8"?>
<map version="1.10" tiledversion="1.10.2" orientation="orthogonal" renderorder="right-down" width="12" height="12" tilewidth="16" tileheight="16" infinite="0" nextlayerid="7" nextobjectid="1">
 <properties>
  <property name="Warp" value="5 12 Beach 21 13"/>
  <property name="AmbientLight" value="90 90 60"/>
  <property name="Light" value="3 2 4 9 2 4 1 4 4"/>
 </properties>
 <tileset firstgid="1" name="z_beach_cabin_interior" tilewidth="16" tileheight="16" tilecount="48" columns="8">
  <image source="beach_cabin_interior.png" width="128" height="96"/>
 </tileset>
 <tileset firstgid="49" name="z_walls_and_floors" tilewidth="16" tileheight="16" tilecount="688" columns="16">
  <image source="walls_and_floors.png" width="256" height="688"/>
 </tileset>
 <tileset firstgid="737" name="z_z_beach_cabin_furniture" tilewidth="16" tileheight="16" tilecount="48" columns="16">
  <image source="z_beach_cabin_furniture.png" width="256" height="48"/>
 </tileset>
 <layer id="1" name="Back" width="12" height="12">
  <data encoding="csv">
0,0,0,0,0,0,0,0,0,0,0,0,
0,0,0,0,0,0,0,0,0,0,0,0,
0,0,0,0,0,0,0,0,0,0,0,0,
0,0,0,0,0,0,0,0,0,0,0,0,
0,454,453,454,453,454,453,454,453,454,453,0,
0,470,469,470,469,470,469,470,469,470,469,0,
0,454,453,454,453,454,453,454,453,454,453,0,
0,470,469,470,469,470,469,470,469,470,469,0,
0,454,453,454,453,454,453,454,453,454,453,0,
0,470,469,470,469,470,469,470,469,470,469,0,
0,0,0,0,0,454,0,0,0,0,0,0,
0,0,0,0,0,470,0,0,0,0,0,0
</data>
 </layer>
 <layer id="2" name="Back2" width="12" height="12">
  <data encoding="csv">
0,0,0,0,0,0,0,0,0,0,0,0,
0,0,0,0,0,0,0,0,0,0,0,0,
0,0,0,0,0,0,0,0,0,0,0,0,
0,0,0,0,0,0,0,0,0,0,0,0,
0,0,0,0,0,0,0,0,0,0,0,0,
0,0,0,0,0,0,0,0,0,0,0,0,
0,0,0,0,0,737,738,739,0,0,0,0,
0,0,0,0,0,740,741,742,0,0,0,0,
0,0,0,0,0,0,0,0,0,0,0,0,
0,0,0,0,0,0,0,0,0,0,0,0,
0,0,0,0,0,0,0,0,0,0,0,0,
0,0,0,0,0,0,0,0,0,0,0,0
</data>
 </layer>
 <layer id="3" name="Buildings" width="12" height="12">
  <data encoding="csv">
1,1,1,1,1,1,1,1,1,1,1,1,
1,345,345,345,345,345,345,345,345,345,345,1,
1,361,361,361,361,361,361,361,361,361,361,1,
1,377,377,377,377,377,377,377,377,377,377,1,
1,762,0,0,0,0,0,0,759,765,766,1,
1,0,0,0,0,0,0,0,0,767,768,1,
1,776,773,774,778,0,0,0,0,769,770,1,
1,0,0,0,0,0,0,0,0,0,0,1,
1,0,0,0,0,0,0,0,0,0,0,1,
1,781,0,0,0,0,0,0,0,0,783,1,
1,1,1,1,1,0,1,1,1,1,1,1,
1,1,1,1,1,0,1,1,1,1,1,1
</data>
 </layer>
 <layer id="4" name="Buildings2" width="12" height="12">
  <data encoding="csv">
0,0,0,0,0,0,0,0,0,0,0,0,
0,753,0,743,0,745,746,747,0,743,751,0,
0,754,0,744,0,748,749,750,0,744,752,0,
0,755,0,0,0,0,0,0,0,0,0,0,
0,0,0,0,0,0,0,0,0,0,0,0,
0,0,0,0,0,0,0,0,0,0,0,0,
0,0,0,0,0,0,0,0,0,0,0,0,
0,0,0,0,0,0,0,0,0,0,0,0,
0,0,0,0,0,0,0,0,0,0,0,0,
0,0,0,0,0,0,0,0,0,0,0,0,
0,0,0,0,0,0,0,0,0,0,0,0,
0,0,0,0,0,0,0,0,0,0,0,0
</data>
 </layer>
 <layer id="5" name="Front" width="12" height="12">
  <data encoding="csv">
40,16,16,16,16,16,16,16,16,16,16,48,
13,0,0,0,0,0,0,0,756,0,0,14,
13,760,0,0,0,0,0,0,757,0,0,14,
13,761,0,0,0,0,0,0,758,763,764,14,
13,0,0,0,0,0,0,0,0,0,0,14,
13,775,771,772,777,0,0,0,0,0,0,14,
13,0,0,0,0,0,0,0,0,0,0,14,
13,779,0,0,0,0,0,0,0,0,0,14,
13,780,0,0,0,0,0,0,0,0,782,14,
13,0,0,0,0,0,0,0,0,0,0,14,
24,15,15,15,41,0,42,15,15,15,15,32,
0,0,0,0,13,0,14,0,0,0,0,0
</data>
 </layer>
 <layer id="6" name="Front2" width="12" height="12">
  <data encoding="csv">
0,0,0,0,0,0,0,0,0,0,0,0,
0,0,0,0,0,0,0,0,0,0,0,0,
0,0,0,0,0,0,0,0,0,0,0,0,
0,0,0,0,0,0,0,0,0,0,0,0,
0,0,0,0,0,0,0,0,0,0,0,0,
0,0,0,0,0,0,0,0,0,0,0,0,
0,0,0,0,0,0,0,0,0,0,0,0,
0,0,0,0,0,0,0,0,0,0,0,0,
0,0,0,0,0,0,0,0,0,0,0,0,
0,0,0,0,0,0,0,0,0,0,0,0,
0,0,0,0,0,0,0,0,0,0,0,0,
0,0,0,0,0,0,0,0,0,0,0,0
</data>
 </layer>
</map>
